icon-themes/breeze_svg/cmd/lc_drawchart.svg

<svg viewBox="0 0 24 24" xmlns="http://www.w3.org/2000/svg"><path d="m6 3.9980469-1 .0019531v14h-1v1h1v1h1v-1h14v-1h-2v-9h-4v9h-2v-14h-4v14h-2z" fill="#4d4d4d"/><path d="m18 3v2h-2v1h2v2h1v-2h2v-1h-2v-2z" fill="#1d99f3"/></svg>

<svg xmlns="http://www.w3.org/2000/svg" viewBox="0 0 24 24">
 <path 
     style="fill:#4d4d4d" 
     d="M 6 3.9980469 L 5 4 L 5 18 L 4 18 L 4 19 L 5 19 L 5 20 L 6 20 L 6 19 L 20 19 L 20 18 L 18 18 L 18 9 L 14 9 L 14 18 L 12 18 L 12 4 L 8 4 L 8 18 L 6 18 L 6 3.9980469 z "
     />
 <path 
     style="fill:#1d99f3" 
     d="M 18 3 L 18 5 L 16 5 L 16 6 L 18 6 L 18 8 L 19 8 L 19 6 L 21 6 L 21 5 L 19 5 L 19 3 L 18 3 z "
     />
 </svg>
